source/assets/svg-source/tikz-file-153034.svg

<?xml version="1.0" encoding="UTF-8" standalone="no"?>
<!-- This file was generated by dvisvgm 2.1.3 -->

<svg
   height="43.2004pt"
   version="1.1"
   viewBox="-72 -72 151.2 43.2004"
   width="151.2pt"
   id="svg31"
   sodipodi:docname="tikz-file-153034.svg"
   inkscape:version="1.4 (e7c3feb1, 2024-10-09)"
   xmlns:inkscape="http://www.inkscape.org/namespaces/inkscape"
   xmlns:sodipodi="http://sodipodi.sourceforge.net/DTD/sodipodi-0.dtd"
   xmlns="http://www.w3.org/2000/svg"
   xmlns:svg="http://www.w3.org/2000/svg">
  <sodipodi:namedview
     id="namedview31"
     pagecolor="#ffffff"
     bordercolor="#000000"
     borderopacity="0.25"
     inkscape:showpageshadow="2"
     inkscape:pageopacity="0.0"
     inkscape:pagecheckerboard="0"
     inkscape:deskcolor="#d1d1d1"
     inkscape:document-units="pt"
     inkscape:zoom="4.5511059"
     inkscape:cx="119.42152"
     inkscape:cy="52.514708"
     inkscape:window-width="1304"
     inkscape:window-height="843"
     inkscape:window-x="0"
     inkscape:window-y="37"
     inkscape:window-maximized="0"
     inkscape:current-layer="svg31" />
  <defs
     id="defs1">
    <clipPath
       id="clip1">
      <path
         d="M-72 -28.8008V-72H79.2031V-28.8008ZM79.2031 -72"
         id="path1" />
    </clipPath>
  </defs>
  <g
     id="page1">
    <path
       clip-path="url(#clip1)"
       d="M-63.6172 -36.8984H-37.1836C-37.0274 -36.8984 -36.8984 -37.0273 -36.8984 -37.1836V-63.6172C-36.8984 -63.7734 -37.0274 -63.8984 -37.1836 -63.8984H-63.6172C-63.7734 -63.8984 -63.9024 -63.7734 -63.9024 -63.6172V-37.1836C-63.9024 -37.0273 -63.7734 -36.8984 -63.6172 -36.8984Z"
       fill="#f9ac93"
       id="path2" />
    <path
       clip-path="url(#clip1)"
       d="M-63.6172 -36.8984H-37.1836C-37.0274 -36.8984 -36.8984 -37.0273 -36.8984 -37.1836V-63.6172C-36.8984 -63.7734 -37.0274 -63.8984 -37.1836 -63.8984H-63.6172C-63.7734 -63.8984 -63.9024 -63.7734 -63.9024 -63.6172V-37.1836C-63.9024 -37.0273 -63.7734 -36.8984 -63.6172 -36.8984Z"
       fill="none"
       stroke="#000000"
       stroke-linejoin="bevel"
       stroke-miterlimit="10.0375"
       stroke-width="1.00002"
       id="path3" />
    <path
       clip-path="url(#clip1)"
       d="M-54.707 -45.8086H-46.3633C-46.207 -45.8086 -46.082 -45.9375 -46.082 -46.0938V-54.4375C-46.082 -54.5938 -46.207 -54.7188 -46.3633 -54.7188H-54.707C-54.8633 -54.7188 -54.9922 -54.5938 -54.9922 -54.4375V-46.0938C-54.9922 -45.9375 -54.8633 -45.8086 -54.707 -45.8086Z"
       fill="#e03c31"
       id="path4" />
    <path
       clip-path="url(#clip1)"
       d="M-54.707 -45.8086H-46.3633C-46.207 -45.8086 -46.082 -45.9375 -46.082 -46.0938V-54.4375C-46.082 -54.5938 -46.207 -54.7188 -46.3633 -54.7188H-54.707C-54.8633 -54.7188 -54.9922 -54.5938 -54.9922 -54.4375V-46.0938C-54.9922 -45.9375 -54.8633 -45.8086 -54.707 -45.8086Z"
       fill="none"
       stroke="#000000"
       stroke-linejoin="bevel"
       stroke-miterlimit="10.0375"
       stroke-width="1.00002"
       id="path5" />
    <path
       clip-path="url(#clip1)"
       d="M-53.6289 -46.8906H-47.4453C-47.2852 -46.8906 -47.1602 -47.0156 -47.1602 -47.1719V-53.3555C-47.1602 -53.5117 -47.2852 -53.6406 -47.4453 -53.6406H-53.6289C-53.7852 -53.6406 -53.9102 -53.5117 -53.9102 -53.3555V-47.1719C-53.9102 -47.0156 -53.7852 -46.8906 -53.6289 -46.8906Z"
       fill="#e03c31"
       id="path6" />
    <path
       clip-path="url(#clip1)"
       d="M-53.6289 -46.8906H-47.4453C-47.2852 -46.8906 -47.1602 -47.0156 -47.1602 -47.1719V-53.3555C-47.1602 -53.5117 -47.2852 -53.6406 -47.4453 -53.6406H-53.6289C-53.7852 -53.6406 -53.9102 -53.5117 -53.9102 -53.3555V-47.1719C-53.9102 -47.0156 -53.7852 -46.8906 -53.6289 -46.8906Z"
       fill="none"
       stroke="#000000"
       stroke-linejoin="bevel"
       stroke-miterlimit="10.0375"
       stroke-width="1.00002"
       id="path7" />
    <path
       clip-path="url(#clip1)"
       d="M-54.9922 -45.8086L-53.9102 -46.8906"
       fill="none"
       stroke="#000000"
       stroke-linejoin="bevel"
       stroke-miterlimit="10.0375"
       stroke-width="1.00002"
       id="path8" />
    <path
       clip-path="url(#clip1)"
       d="M-54.9922 -54.7188L-53.9102 -53.6406"
       fill="none"
       stroke="#000000"
       stroke-linejoin="bevel"
       stroke-miterlimit="10.0375"
       stroke-width="1.00002"
       id="path9" />
    <path
       clip-path="url(#clip1)"
       d="M-46.082 -45.8086L-47.1602 -46.8906"
       fill="none"
       stroke="#000000"
       stroke-linejoin="bevel"
       stroke-miterlimit="10.0375"
       stroke-width="1.00002"
       id="path10" />
    <path
       clip-path="url(#clip1)"
       d="M-46.082 -54.7188L-47.1602 -53.6406"
       fill="none"
       stroke="#000000"
       stroke-linejoin="bevel"
       stroke-miterlimit="10.0375"
       stroke-width="1.00002"
       id="path11" />
    <path
       clip-path="url(#clip1)"
       d="M-9.61719 -36.8984H16.8164C16.9726 -36.8984 17.1016 -37.0273 17.1016 -37.1836V-63.6172C17.1016 -63.7734 16.9726 -63.8984 16.8164 -63.8984H-9.61719C-9.77339 -63.8984 -9.89839 -63.7734 -9.89839 -63.6172V-37.1836C-9.89839 -37.0273 -9.77339 -36.8984 -9.61719 -36.8984Z"
       fill="#f9ac93"
       id="path12" />
    <path
       clip-path="url(#clip1)"
       d="M-9.61719 -36.8984H16.8164C16.9726 -36.8984 17.1016 -37.0273 17.1016 -37.1836V-63.6172C17.1016 -63.7734 16.9726 -63.8984 16.8164 -63.8984H-9.61719C-9.77339 -63.8984 -9.89839 -63.7734 -9.89839 -63.6172V-37.1836C-9.89839 -37.0273 -9.77339 -36.8984 -9.61719 -36.8984Z"
       fill="none"
       stroke="#000000"
       stroke-linejoin="bevel"
       stroke-miterlimit="10.0375"
       stroke-width="1.00002"
       id="path13" />
    <path
       clip-path="url(#clip1)"
       d="M-0.70703 -45.8086H7.63672C7.79297 -45.8086 7.92187 -45.9375 7.92187 -46.0938V-54.4375C7.92187 -54.5938 7.79297 -54.7188 7.63672 -54.7188H-0.70703C-0.86328 -54.7188 -0.98828 -54.5938 -0.98828 -54.4375V-46.0938C-0.98828 -45.9375 -0.86328 -45.8086 -0.70703 -45.8086Z"
       fill="#e03c31"
       id="path14" />
    <path
       clip-path="url(#clip1)"
       d="M-0.70703 -45.8086H7.63672C7.79297 -45.8086 7.92187 -45.9375 7.92187 -46.0938V-54.4375C7.92187 -54.5938 7.79297 -54.7188 7.63672 -54.7188H-0.70703C-0.86328 -54.7188 -0.98828 -54.5938 -0.98828 -54.4375V-46.0938C-0.98828 -45.9375 -0.86328 -45.8086 -0.70703 -45.8086Z"
       fill="none"
       stroke="#000000"
       stroke-linejoin="bevel"
       stroke-miterlimit="10.0375"
       stroke-width="1.00002"
       id="path15" />
    <path
       clip-path="url(#clip1)"
       d="M0.375 -46.8906H6.55859C6.71484 -46.8906 6.83984 -47.0156 6.83984 -47.1719V-53.3555C6.83984 -53.5117 6.71484 -53.6406 6.55859 -53.6406H0.375C0.21875 -53.6406 0.08984 -53.5117 0.08984 -53.3555V-47.1719C0.08984 -47.0156 0.21875 -46.8906 0.375 -46.8906Z"
       fill="#e03c31"
       id="path16" />
    <path
       clip-path="url(#clip1)"
       d="M0.375 -46.8906H6.55859C6.71484 -46.8906 6.83984 -47.0156 6.83984 -47.1719V-53.3555C6.83984 -53.5117 6.71484 -53.6406 6.55859 -53.6406H0.375C0.21875 -53.6406 0.08984 -53.5117 0.08984 -53.3555V-47.1719C0.08984 -47.0156 0.21875 -46.8906 0.375 -46.8906Z"
       fill="none"
       stroke="#000000"
       stroke-linejoin="bevel"
       stroke-miterlimit="10.0375"
       stroke-width="1.00002"
       id="path17" />
    <path
       clip-path="url(#clip1)"
       d="M-0.98828 -45.8086L0.08984 -46.8906"
       fill="none"
       stroke="#000000"
       stroke-linejoin="bevel"
       stroke-miterlimit="10.0375"
       stroke-width="1.00002"
       id="path18" />
    <path
       clip-path="url(#clip1)"
       d="M-0.98828 -54.7188L0.08984 -53.6406"
       fill="none"
       stroke="#000000"
       stroke-linejoin="bevel"
       stroke-miterlimit="10.0375"
       stroke-width="1.00002"
       id="path19" />
    <path
       clip-path="url(#clip1)"
       d="M7.92187 -45.8086L6.83984 -46.8906"
       fill="none"
       stroke="#000000"
       stroke-linejoin="bevel"
       stroke-miterlimit="10.0375"
       stroke-width="1.00002"
       id="path20" />
    <path
       clip-path="url(#clip1)"
       d="M7.92187 -54.7188L6.83984 -53.6406"
       fill="none"
       stroke="#000000"
       stroke-linejoin="bevel"
       stroke-miterlimit="10.0375"
       stroke-width="1.00002"
       id="path21" />
    <path
       clip-path="url(#clip1)"
       d="M44.3828 -36.8984H70.8164C70.9726 -36.8984 71.1016 -37.0273 71.1016 -37.1836V-63.6172C71.1016 -63.7734 70.9726 -63.8984 70.8164 -63.8984H44.3828C44.2266 -63.8984 44.1016 -63.7734 44.1016 -63.6172V-37.1836C44.1016 -37.0273 44.2266 -36.8984 44.3828 -36.8984Z"
       fill="#f9ac93"
       id="path22" />
    <path
       clip-path="url(#clip1)"
       d="M44.3828 -36.8984H70.8164C70.9726 -36.8984 71.1016 -37.0273 71.1016 -37.1836V-63.6172C71.1016 -63.7734 70.9726 -63.8984 70.8164 -63.8984H44.3828C44.2266 -63.8984 44.1016 -63.7734 44.1016 -63.6172V-37.1836C44.1016 -37.0273 44.2266 -36.8984 44.3828 -36.8984Z"
       fill="none"
       stroke="#000000"
       stroke-linejoin="bevel"
       stroke-miterlimit="10.0375"
       stroke-width="1.00002"
       id="path23" />
    <path
       clip-path="url(#clip1)"
       d="M53.293 -45.8086H61.6367C61.793 -45.8086 61.9219 -45.9375 61.9219 -46.0938V-54.4375C61.9219 -54.5938 61.793 -54.7188 61.6367 -54.7188H53.293C53.1367 -54.7188 53.0117 -54.5938 53.0117 -54.4375V-46.0938C53.0117 -45.9375 53.1367 -45.8086 53.293 -45.8086Z"
       fill="#e03c31"
       id="path24" />
    <path
       clip-path="url(#clip1)"
       d="M53.293 -45.8086H61.6367C61.793 -45.8086 61.9219 -45.9375 61.9219 -46.0938V-54.4375C61.9219 -54.5938 61.793 -54.7188 61.6367 -54.7188H53.293C53.1367 -54.7188 53.0117 -54.5938 53.0117 -54.4375V-46.0938C53.0117 -45.9375 53.1367 -45.8086 53.293 -45.8086Z"
       fill="none"
       stroke="#000000"
       stroke-linejoin="bevel"
       stroke-miterlimit="10.0375"
       stroke-width="1.00002"
       id="path25" />
    <path
       clip-path="url(#clip1)"
       d="M54.375 -46.8906H60.5586C60.7148 -46.8906 60.8398 -47.0156 60.8398 -47.1719V-53.3555C60.8398 -53.5117 60.7148 -53.6406 60.5586 -53.6406H54.375C54.2187 -53.6406 54.0898 -53.5117 54.0898 -53.3555V-47.1719C54.0898 -47.0156 54.2187 -46.8906 54.375 -46.8906Z"
       fill="#e03c31"
       id="path26" />
    <path
       clip-path="url(#clip1)"
       d="M54.375 -46.8906H60.5586C60.7148 -46.8906 60.8398 -47.0156 60.8398 -47.1719V-53.3555C60.8398 -53.5117 60.7148 -53.6406 60.5586 -53.6406H54.375C54.2187 -53.6406 54.0898 -53.5117 54.0898 -53.3555V-47.1719C54.0898 -47.0156 54.2187 -46.8906 54.375 -46.8906Z"
       fill="none"
       stroke="#000000"
       stroke-linejoin="bevel"
       stroke-miterlimit="10.0375"
       stroke-width="1.00002"
       id="path27" />
    <path
       clip-path="url(#clip1)"
       d="M53.0117 -45.8086L54.0898 -46.8906"
       fill="none"
       stroke="#000000"
       stroke-linejoin="bevel"
       stroke-miterlimit="10.0375"
       stroke-width="1.00002"
       id="path28" />
    <path
       clip-path="url(#clip1)"
       d="M53.0117 -54.7188L54.0898 -53.6406"
       fill="none"
       stroke="#000000"
       stroke-linejoin="bevel"
       stroke-miterlimit="10.0375"
       stroke-width="1.00002"
       id="path29" />
    <path
       clip-path="url(#clip1)"
       d="M61.9219 -45.8086L60.8398 -46.8906"
       fill="none"
       stroke="#000000"
       stroke-linejoin="bevel"
       stroke-miterlimit="10.0375"
       stroke-width="1.00002"
       id="path30" />
    <path
       clip-path="url(#clip1)"
       d="M61.9219 -54.7188L60.8398 -53.6406"
       fill="none"
       stroke="#000000"
       stroke-linejoin="bevel"
       stroke-miterlimit="10.0375"
       stroke-width="1.00002"
       id="path31" />
  </g>
  <rect
     style="fill:none;stroke:#000000;stroke-width:1.56614;stroke-dasharray:none;stroke-opacity:1"
     id="rect1"
     width="149.47552"
     height="41.804661"
     x="-71.062508"
     y="-71.207619" />
</svg>

<?xml version="1.0" encoding="UTF-8" standalone="no"?>
<!-- This file was generated by dvisvgm 2.1.3 -->

<svg
   height="97.199997pt"
   version="1.1"
   viewBox="-72 -72 151.2 97.199994"
   width="151.2pt"
   id="svg31"
   sodipodi:docname="tikz-file-153034.svg"
   inkscape:version="1.4 (e7c3feb1, 2024-10-09)"
   xmlns:inkscape="http://www.inkscape.org/namespaces/inkscape"
   xmlns:sodipodi="http://sodipodi.sourceforge.net/DTD/sodipodi-0.dtd"
   xmlns="http://www.w3.org/2000/svg"
   xmlns:svg="http://www.w3.org/2000/svg">
  <sodipodi:namedview
     id="namedview31"
     pagecolor="#ffffff"
     bordercolor="#000000"
     borderopacity="0.25"
     inkscape:showpageshadow="2"
     inkscape:pageopacity="0.0"
     inkscape:pagecheckerboard="0"
     inkscape:deskcolor="#d1d1d1"
     inkscape:document-units="pt"
     inkscape:zoom="4.5511059"
     inkscape:cx="142.71257"
     inkscape:cy="55.590884"
     inkscape:window-width="1304"
     inkscape:window-height="843"
     inkscape:window-x="0"
     inkscape:window-y="37"
     inkscape:window-maximized="0"
     inkscape:current-layer="svg31" />
  <defs
     id="defs1">
    <clipPath
       id="clip1">
      <path
         d="M -72,-28.8008 V -72 H 79.2031 v 43.1992 z M 79.2031,-72"
         id="path1" />
    </clipPath>
  </defs>
  <g
     id="page1">
    <path
       clip-path="url(#clip1)"
       d="m -63.6172,-36.8984 h 26.4336 c 0.1562,0 0.2852,-0.1289 0.2852,-0.2852 v -26.4336 c 0,-0.1562 -0.129,-0.2812 -0.2852,-0.2812 h -26.4336 c -0.1562,0 -0.2852,0.125 -0.2852,0.2812 v 26.4336 c 0,0.1563 0.129,0.2852 0.2852,0.2852 z"
       fill="#f9ac93"
       id="path2" />
    <path
       clip-path="url(#clip1)"
       d="m -63.6172,-36.8984 h 26.4336 c 0.1562,0 0.2852,-0.1289 0.2852,-0.2852 v -26.4336 c 0,-0.1562 -0.129,-0.2812 -0.2852,-0.2812 h -26.4336 c -0.1562,0 -0.2852,0.125 -0.2852,0.2812 v 26.4336 c 0,0.1563 0.129,0.2852 0.2852,0.2852 z"
       fill="none"
       stroke="#000000"
       stroke-linejoin="bevel"
       stroke-miterlimit="10.0375"
       stroke-width="1.00002"
       id="path3" />
    <path
       clip-path="url(#clip1)"
       d="m -54.707,-45.8086 h 8.3437 c 0.1563,0 0.2813,-0.1289 0.2813,-0.2852 v -8.3437 c 0,-0.1563 -0.125,-0.2813 -0.2813,-0.2813 h -8.3437 c -0.1563,0 -0.2852,0.125 -0.2852,0.2813 v 8.3437 c 0,0.1563 0.1289,0.2852 0.2852,0.2852 z"
       fill="#e03c31"
       id="path4" />
    <path
       clip-path="url(#clip1)"
       d="m -54.707,-45.8086 h 8.3437 c 0.1563,0 0.2813,-0.1289 0.2813,-0.2852 v -8.3437 c 0,-0.1563 -0.125,-0.2813 -0.2813,-0.2813 h -8.3437 c -0.1563,0 -0.2852,0.125 -0.2852,0.2813 v 8.3437 c 0,0.1563 0.1289,0.2852 0.2852,0.2852 z"
       fill="none"
       stroke="#000000"
       stroke-linejoin="bevel"
       stroke-miterlimit="10.0375"
       stroke-width="1.00002"
       id="path5" />
    <path
       clip-path="url(#clip1)"
       d="m -53.6289,-46.8906 h 6.1836 c 0.1601,0 0.2851,-0.125 0.2851,-0.2813 v -6.1836 c 0,-0.1562 -0.125,-0.2851 -0.2851,-0.2851 h -6.1836 c -0.1563,0 -0.2813,0.1289 -0.2813,0.2851 v 6.1836 c 0,0.1563 0.125,0.2813 0.2813,0.2813 z"
       fill="#e03c31"
       id="path6" />
    <path
       clip-path="url(#clip1)"
       d="m -53.6289,-46.8906 h 6.1836 c 0.1601,0 0.2851,-0.125 0.2851,-0.2813 v -6.1836 c 0,-0.1562 -0.125,-0.2851 -0.2851,-0.2851 h -6.1836 c -0.1563,0 -0.2813,0.1289 -0.2813,0.2851 v 6.1836 c 0,0.1563 0.125,0.2813 0.2813,0.2813 z"
       fill="none"
       stroke="#000000"
       stroke-linejoin="bevel"
       stroke-miterlimit="10.0375"
       stroke-width="1.00002"
       id="path7" />
    <path
       clip-path="url(#clip1)"
       d="m -54.9922,-45.8086 1.082,-1.082"
       fill="none"
       stroke="#000000"
       stroke-linejoin="bevel"
       stroke-miterlimit="10.0375"
       stroke-width="1.00002"
       id="path8" />
    <path
       clip-path="url(#clip1)"
       d="m -54.9922,-54.7188 1.082,1.0782"
       fill="none"
       stroke="#000000"
       stroke-linejoin="bevel"
       stroke-miterlimit="10.0375"
       stroke-width="1.00002"
       id="path9" />
    <path
       clip-path="url(#clip1)"
       d="m -46.082,-45.8086 -1.0782,-1.082"
       fill="none"
       stroke="#000000"
       stroke-linejoin="bevel"
       stroke-miterlimit="10.0375"
       stroke-width="1.00002"
       id="path10" />
    <path
       clip-path="url(#clip1)"
       d="m -46.082,-54.7188 -1.0782,1.0782"
       fill="none"
       stroke="#000000"
       stroke-linejoin="bevel"
       stroke-miterlimit="10.0375"
       stroke-width="1.00002"
       id="path11" />
    <path
       clip-path="url(#clip1)"
       d="M -9.61719,-36.8984 H 16.8164 c 0.1562,0 0.2852,-0.1289 0.2852,-0.2852 v -26.4336 c 0,-0.1562 -0.129,-0.2812 -0.2852,-0.2812 H -9.61719 c -0.1562,0 -0.2812,0.125 -0.2812,0.2812 v 26.4336 c 0,0.1563 0.125,0.2852 0.2812,0.2852 z"
       fill="#f9ac93"
       id="path12" />
    <path
       clip-path="url(#clip1)"
       d="M -9.61719,-36.8984 H 16.8164 c 0.1562,0 0.2852,-0.1289 0.2852,-0.2852 v -26.4336 c 0,-0.1562 -0.129,-0.2812 -0.2852,-0.2812 H -9.61719 c -0.1562,0 -0.2812,0.125 -0.2812,0.2812 v 26.4336 c 0,0.1563 0.125,0.2852 0.2812,0.2852 z"
       fill="none"
       stroke="#000000"
       stroke-linejoin="bevel"
       stroke-miterlimit="10.0375"
       stroke-width="1.00002"
       id="path13" />
    <path
       clip-path="url(#clip1)"
       d="m -0.70703,-45.8086 h 8.34375 c 0.15625,0 0.28515,-0.1289 0.28515,-0.2852 v -8.3437 c 0,-0.1563 -0.1289,-0.2813 -0.28515,-0.2813 h -8.34375 c -0.15625,0 -0.28125,0.125 -0.28125,0.2813 v 8.3437 c 0,0.1563 0.125,0.2852 0.28125,0.2852 z"
       fill="#e03c31"
       id="path14" />
    <path
       clip-path="url(#clip1)"
       d="m -0.70703,-45.8086 h 8.34375 c 0.15625,0 0.28515,-0.1289 0.28515,-0.2852 v -8.3437 c 0,-0.1563 -0.1289,-0.2813 -0.28515,-0.2813 h -8.34375 c -0.15625,0 -0.28125,0.125 -0.28125,0.2813 v 8.3437 c 0,0.1563 0.125,0.2852 0.28125,0.2852 z"
       fill="none"
       stroke="#000000"
       stroke-linejoin="bevel"
       stroke-miterlimit="10.0375"
       stroke-width="1.00002"
       id="path15" />
    <path
       clip-path="url(#clip1)"
       d="m 0.375,-46.8906 h 6.18359 c 0.15625,0 0.28125,-0.125 0.28125,-0.2813 v -6.1836 c 0,-0.1562 -0.125,-0.2851 -0.28125,-0.2851 H 0.375 c -0.15625,0 -0.28516,0.1289 -0.28516,0.2851 v 6.1836 c 0,0.1563 0.12891,0.2813 0.28516,0.2813 z"
       fill="#e03c31"
       id="path16" />
    <path
       clip-path="url(#clip1)"
       d="m 0.375,-46.8906 h 6.18359 c 0.15625,0 0.28125,-0.125 0.28125,-0.2813 v -6.1836 c 0,-0.1562 -0.125,-0.2851 -0.28125,-0.2851 H 0.375 c -0.15625,0 -0.28516,0.1289 -0.28516,0.2851 v 6.1836 c 0,0.1563 0.12891,0.2813 0.28516,0.2813 z"
       fill="none"
       stroke="#000000"
       stroke-linejoin="bevel"
       stroke-miterlimit="10.0375"
       stroke-width="1.00002"
       id="path17" />
    <path
       clip-path="url(#clip1)"
       d="m -0.98828,-45.8086 1.07812,-1.082"
       fill="none"
       stroke="#000000"
       stroke-linejoin="bevel"
       stroke-miterlimit="10.0375"
       stroke-width="1.00002"
       id="path18" />
    <path
       clip-path="url(#clip1)"
       d="m -0.98828,-54.7188 1.07812,1.0782"
       fill="none"
       stroke="#000000"
       stroke-linejoin="bevel"
       stroke-miterlimit="10.0375"
       stroke-width="1.00002"
       id="path19" />
    <path
       clip-path="url(#clip1)"
       d="m 7.92187,-45.8086 -1.08203,-1.082"
       fill="none"
       stroke="#000000"
       stroke-linejoin="bevel"
       stroke-miterlimit="10.0375"
       stroke-width="1.00002"
       id="path20" />
    <path
       clip-path="url(#clip1)"
       d="m 7.92187,-54.7188 -1.08203,1.0782"
       fill="none"
       stroke="#000000"
       stroke-linejoin="bevel"
       stroke-miterlimit="10.0375"
       stroke-width="1.00002"
       id="path21" />
    <path
       clip-path="url(#clip1)"
       d="m 44.3828,-36.8984 h 26.4336 c 0.1562,0 0.2852,-0.1289 0.2852,-0.2852 v -26.4336 c 0,-0.1562 -0.129,-0.2812 -0.2852,-0.2812 H 44.3828 c -0.1562,0 -0.2812,0.125 -0.2812,0.2812 v 26.4336 c 0,0.1563 0.125,0.2852 0.2812,0.2852 z"
       fill="#f9ac93"
       id="path22" />
    <path
       clip-path="url(#clip1)"
       d="m 44.3828,-36.8984 h 26.4336 c 0.1562,0 0.2852,-0.1289 0.2852,-0.2852 v -26.4336 c 0,-0.1562 -0.129,-0.2812 -0.2852,-0.2812 H 44.3828 c -0.1562,0 -0.2812,0.125 -0.2812,0.2812 v 26.4336 c 0,0.1563 0.125,0.2852 0.2812,0.2852 z"
       fill="none"
       stroke="#000000"
       stroke-linejoin="bevel"
       stroke-miterlimit="10.0375"
       stroke-width="1.00002"
       id="path23" />
    <path
       clip-path="url(#clip1)"
       d="m 53.293,-45.8086 h 8.3437 c 0.1563,0 0.2852,-0.1289 0.2852,-0.2852 v -8.3437 c 0,-0.1563 -0.1289,-0.2813 -0.2852,-0.2813 H 53.293 c -0.1563,0 -0.2813,0.125 -0.2813,0.2813 v 8.3437 c 0,0.1563 0.125,0.2852 0.2813,0.2852 z"
       fill="#e03c31"
       id="path24" />
    <path
       clip-path="url(#clip1)"
       d="m 53.293,-45.8086 h 8.3437 c 0.1563,0 0.2852,-0.1289 0.2852,-0.2852 v -8.3437 c 0,-0.1563 -0.1289,-0.2813 -0.2852,-0.2813 H 53.293 c -0.1563,0 -0.2813,0.125 -0.2813,0.2813 v 8.3437 c 0,0.1563 0.125,0.2852 0.2813,0.2852 z"
       fill="none"
       stroke="#000000"
       stroke-linejoin="bevel"
       stroke-miterlimit="10.0375"
       stroke-width="1.00002"
       id="path25" />
    <path
       clip-path="url(#clip1)"
       d="m 54.375,-46.8906 h 6.1836 c 0.1562,0 0.2812,-0.125 0.2812,-0.2813 v -6.1836 c 0,-0.1562 -0.125,-0.2851 -0.2812,-0.2851 H 54.375 c -0.1563,0 -0.2852,0.1289 -0.2852,0.2851 v 6.1836 c 0,0.1563 0.1289,0.2813 0.2852,0.2813 z"
       fill="#e03c31"
       id="path26" />
    <path
       clip-path="url(#clip1)"
       d="m 54.375,-46.8906 h 6.1836 c 0.1562,0 0.2812,-0.125 0.2812,-0.2813 v -6.1836 c 0,-0.1562 -0.125,-0.2851 -0.2812,-0.2851 H 54.375 c -0.1563,0 -0.2852,0.1289 -0.2852,0.2851 v 6.1836 c 0,0.1563 0.1289,0.2813 0.2852,0.2813 z"
       fill="none"
       stroke="#000000"
       stroke-linejoin="bevel"
       stroke-miterlimit="10.0375"
       stroke-width="1.00002"
       id="path27" />
    <path
       clip-path="url(#clip1)"
       d="m 53.0117,-45.8086 1.0781,-1.082"
       fill="none"
       stroke="#000000"
       stroke-linejoin="bevel"
       stroke-miterlimit="10.0375"
       stroke-width="1.00002"
       id="path28" />
    <path
       clip-path="url(#clip1)"
       d="m 53.0117,-54.7188 1.0781,1.0782"
       fill="none"
       stroke="#000000"
       stroke-linejoin="bevel"
       stroke-miterlimit="10.0375"
       stroke-width="1.00002"
       id="path29" />
    <path
       clip-path="url(#clip1)"
       d="m 61.9219,-45.8086 -1.0821,-1.082"
       fill="none"
       stroke="#000000"
       stroke-linejoin="bevel"
       stroke-miterlimit="10.0375"
       stroke-width="1.00002"
       id="path30" />
    <path
       clip-path="url(#clip1)"
       d="m 61.9219,-54.7188 -1.0821,1.0782"
       fill="none"
       stroke="#000000"
       stroke-linejoin="bevel"
       stroke-miterlimit="10.0375"
       stroke-width="1.00002"
       id="path31" />
  </g>
  <rect
     style="fill:none;stroke:#000000;stroke-width:1.57471;stroke-dasharray:none;stroke-opacity:1"
     id="rect1"
     width="149.43573"
     height="95.52964"
     x="-70.949051"
     y="-70.943832" />
</svg>
